!!!SOCIAL_FUNCTION:	songs of war
!!!PDT:	1918

Specific Region: Dakotas, Minnesota, Montana, Nebraska
!!!REG: Dakotas and Montana
!!!LING_GROUP: Siouan
!!!LANG: Tone
!!!OTL@ENG: Song of the Strong Heart Society (d)
!!!ONM: No. 119
**kern
*Imale
*clefF4
*k[b-e-a-]
*M2/4
*MM88
16g
8g
16g
=1
16g
8.g
4e-
=2
4c
16c
8c
16e-
=3
16c
8.c
4G
=4||
*M3/4
4E-
16A-
8.A-
16A-
8A-
16G
=5
8.E-
16E-
2E-
=6||
*M2/4
2E-
=7
16c
8.g
8.g
16g
=8
16g
8.g
4e-
=9
4c
16c
8c
16e-
=10
16c
8.c
4G
=11||
*M3/4
4E-
16A-
8.A-
16A-
8A-
16G
=12
8.E-
16E-
2E-
=13||
*M2/4
2E-
==
*-
!!!CNT: Native American -- Sioux
!!!MRD: 1911/07//-1914///
!!!OCL: Frances Densmore
!!!YOR1: Teton Sioux Music, Bulletin 61,
!!!YOR2: Bureau of American Ethnology, Smithsonian Institution
!!!PPR: Government Printing Office
!!!PPP: Washington, D.C.
!!!PDT: 1918///
!!!ENC: Craig Stuart Sapp
!!!END: 2002/03/25/
!!!EEV: 2002/03/31/
!!!AGN: War Song
!!!MPN@@SIO: Chetang'-hota
!!!MPN@ENG: Gray Hawk
!!!TXO: Teton Sioux
!!!MLC: Standing Rock Reservation, South Dakota, United States of America
!!!ARL: 45.9/-100.7#
!!!catalog: Catalogue No. 557
!!!PPG: 324
!!!EFL: 119/245
!!!VTS: 2016701560
